modules/hawcons-stroke/icons/icon-96-folders.svg

<?xml version="1.0" encoding="UTF-8" standalone="no"?>
<svg width="32px" height="32px" viewBox="0 0 32 32" version="1.1" xmlns="http://www.w3.org/2000/svg" xmlns:xlink="http://www.w3.org/1999/xlink" xmlns:sketch="http://www.bohemiancoding.com/sketch/ns">
    <!-- Generator: Sketch 3.0.3 (7891) - http://www.bohemiancoding.com/sketch -->
    <title>icon 96 folders</title>
    <desc>Created with Sketch.</desc>
    <defs></defs>
    <g id="Page-1" stroke="none" stroke-width="1" fill="none" fill-rule="evenodd" sketch:type="MSPage">
        <g id="icon-96-folders" sketch:type="MSArtboardGroup" fill="#929292">
            <path d="M1,15 L1,8.99180311 C1,8.45530558 1.44401481,8 1.99173483,8 L12.4000244,8 L14.3599854,12 L26.9970172,12 C27.5461723,12 28,12.4481055 28,13.0008717 L28,15 L1,15 L1,15 Z M1,16 L1,27.0081969 C1,27.5559546 1.44610862,28 1.99296544,28 L27.0070346,28 C27.5554342,28 28,27.5553691 28,26.9991283 L28,16 L1,16 L1,16 Z M3,6 L3,4.991155 C3,3.88967395 3.89666625,3 5.00276013,3 L16,3 L18,7 L29.9941413,7 C31.1029399,7 32,7.8932319 32,8.99508929 L32,23.0049107 C32,24.1073772 31.1075748,25 30.0067126,25 L30,25 L30,24 L30.0070346,24 C30.5554342,24 31,23.5553691 31,22.9991283 L31,9.00087166 C31,8.4481055 30.5461723,8 29.9970172,8 L17.3599854,8 L15.4000244,4 L4.99173483,4 C4.44401481,4 4,4.45530558 4,4.99180311 L4,6 L3,6 L3,6 L3,6 Z M15,11 L13,7 L2.00276013,7 C0.896666251,7 0,7.88967395 0,8.991155 L0,27.008845 C0,28.1085295 0.899712682,29 1.99328744,29 L27.0067126,29 C28.1075748,29 29,28.1073772 29,27.0049107 L29,12.9950893 C29,11.8932319 28.1029399,11 26.9941413,11 L15,11 L15,11 Z" id="folders" sketch:type="MSShapeGroup"></path>
        </g>
    </g>
</svg>

<svg width="32" height="32" viewBox="0 0 32 32" xmlns="http://www.w3.org/2000/svg"><path d="M1 15V8.992A1 1 0 0 1 1.992 8H12.4l1.96 4h12.637c.55 0 1.003.448 1.003 1v2H1zm0 1v11.008c0 .548.446.992.993.992h25.014A.995.995 0 0 0 28 27V16H1zM3 6V4.991C3 3.89 3.897 3 5.003 3H16l2 4h11.994A2 2 0 0 1 32 8.995v14.01A1.994 1.994 0 0 1 30.007 25H30v-1h.007A.995.995 0 0 0 31 23V9c0-.552-.454-1-1.003-1H17.36L15.4 4H4.992A1 1 0 0 0 4 4.992V6H3zm12 5l-2-4H2.003C.897 7 0 7.89 0 8.991V27.01C0 28.109.9 29 1.993 29h25.014c1.1 0 1.993-.893 1.993-1.995v-14.01A2 2 0 0 0 26.994 11H15z" fill="#929292" fill-rule="evenodd"/></svg>
